Sources/FrostedUI/Resources/Icons.xcassets/message20.imageset/message-20.svg

<svg width="20" height="20" viewBox="0 0 20 20" fill="none" xmlns="http://www.w3.org/2000/svg" data-fui-icon="true">
  <path
    d="M16.042 2.375C17.3765 2.3752 18.459 3.45743 18.459 4.79199V13.542C18.4588 14.8764 17.3764 15.9578 16.042 15.958H12.8135C12.7941 15.958 12.7754 15.9655 12.7607 15.9775L11.0117 17.4258C10.4233 17.9133 9.5702 17.9109 8.98438 17.4199L7.26367 15.9775C7.2488 15.9651 7.22937 15.9581 7.20996 15.958H3.95898C2.62441 15.958 1.54217 14.8766 1.54199 13.542V4.79199C1.54199 3.4573 2.6243 2.375 3.95898 2.375H16.042ZM3.95898 3.875C3.45272 3.875 3.04199 4.28573 3.04199 4.79199V13.542C3.04217 14.0481 3.45282 14.458 3.95898 14.458H7.20996C7.58177 14.4581 7.94256 14.5893 8.22754 14.8281L9.94824 16.2705C9.97878 16.2959 10.0236 16.2969 10.0547 16.2715L11.8037 14.8223C12.0877 14.5871 12.445 14.458 12.8135 14.458H16.042C16.548 14.4578 16.9588 14.048 16.959 13.542V4.79199C16.959 4.28585 16.5481 3.8752 16.042 3.875H3.95898ZM6.25 8.0625C6.85983 8.0625 7.35449 8.55723 7.35449 9.16699C7.35432 9.7766 6.85972 10.2705 6.25 10.2705C5.6403 10.2705 5.14568 9.77659 5.14551 9.16699C5.14551 8.55725 5.64019 8.06252 6.25 8.0625ZM10 8.0625C10.6098 8.0625 11.1045 8.55722 11.1045 9.16699C11.1043 9.77662 10.6097 10.2705 10 10.2705C9.39035 10.2705 8.89568 9.7766 8.89551 9.16699C8.89551 8.55723 9.39025 8.06252 10 8.0625ZM13.75 8.0625C14.3598 8.0625 14.8545 8.55722 14.8545 9.16699C14.8543 9.77662 14.3597 10.2705 13.75 10.2705C13.1404 10.2705 12.6457 9.7766 12.6455 9.16699C12.6455 8.55723 13.1402 8.06252 13.75 8.0625Z"
    fill="currentColor"
  />
</svg>

<svg xmlns="http://www.w3.org/2000/svg" width="20" height="20" fill="none" data-fui-icon="true" viewBox="0 0 20 20"><path fill="currentColor" d="M16.042 2.375a2.42 2.42 0 0 1 2.417 2.417v8.75a2.417 2.417 0 0 1-2.417 2.416h-3.229a.1.1 0 0 0-.052.02l-1.75 1.448a1.584 1.584 0 0 1-2.027-.006l-1.72-1.443a.1.1 0 0 0-.054-.019H3.959a2.417 2.417 0 0 1-2.417-2.416v-8.75a2.417 2.417 0 0 1 2.417-2.417zm-12.083 1.5a.917.917 0 0 0-.917.917v8.75c0 .506.41.916.917.916H7.21c.372 0 .733.131 1.018.37l1.72 1.442c.03.026.076.027.107.002l1.749-1.45a1.6 1.6 0 0 1 1.01-.364h3.228c.506 0 .917-.41.917-.916v-8.75a.92.92 0 0 0-.917-.917zM6.25 8.063a1.105 1.105 0 1 1 0 2.209 1.105 1.105 0 0 1 0-2.21m3.75 0a1.105 1.105 0 1 1 0 2.209 1.105 1.105 0 0 1 0-2.21m3.75 0a1.105 1.105 0 1 1 0 2.209 1.105 1.105 0 0 1 0-2.21"/></svg>
